symbols/web/tab/materialsymbolsrounded/tab_20px.svg

<svg xmlns="http://www.w3.org/2000/svg" height="20" width="20"><path d="M3.417 16.667q-.729 0-1.24-.511-.51-.51-.51-1.239V5.083q0-.729.51-1.239.511-.511 1.24-.511h13.166q.729 0 1.24.511.51.51.51 1.239v9.834q0 .729-.51 1.239-.511.511-1.24.511Zm7.416-10.042V5.083H3.417v9.834h13.166V8.375h-4q-.729 0-1.239-.51-.511-.511-.511-1.24Zm-7.416 8.292V5.083v9.834Z"/></svg>

<svg xmlns="http://www.w3.org/2000/svg" height="20" width="20"><path d="M3.417 16.667Q2.688 16.667 2.177 16.156Q1.667 15.646 1.667 14.917V5.083Q1.667 4.354 2.177 3.844Q2.688 3.333 3.417 3.333H16.583Q17.312 3.333 17.823 3.844Q18.333 4.354 18.333 5.083V14.917Q18.333 15.646 17.823 16.156Q17.312 16.667 16.583 16.667ZM10.833 6.625V5.083H3.417Q3.417 5.083 3.417 5.083Q3.417 5.083 3.417 5.083V14.917Q3.417 14.917 3.417 14.917Q3.417 14.917 3.417 14.917H16.583Q16.583 14.917 16.583 14.917Q16.583 14.917 16.583 14.917V8.375H12.583Q11.854 8.375 11.344 7.865Q10.833 7.354 10.833 6.625ZM3.417 14.917V5.083Q3.417 5.083 3.417 5.083Q3.417 5.083 3.417 5.083Q3.417 5.083 3.417 5.083Q3.417 5.083 3.417 5.083V14.917Q3.417 14.917 3.417 14.917Q3.417 14.917 3.417 14.917Q3.417 14.917 3.417 14.917Q3.417 14.917 3.417 14.917Z"/></svg>
